Papirus/22x22/actions/format-node-line.svg

<?xml version="1.0" encoding="UTF-8" standalone="no"?>
<!--Created with Inkscape (http://www.inkscape.org/)-->
<svg id="svg3815" xmlns:rdf="http://www.w3.org/1999/02/22-rdf-syntax-ns#" xmlns="http://www.w3.org/2000/svg" height="22" width="22" version="1.1" xmlns:cc="http://creativecommons.org/ns#" xmlns:dc="http://purl.org/dc/elements/1.1/">
 <defs id="defs3817">
 </defs>
 <metadata id="metadata3820">
  <rdf:RDF>
   <cc:Work rdf:about="">
    <dc:format>image/svg+xml</dc:format>
    <dc:type rdf:resource="http://purl.org/dc/dcmitype/StillImage"/>
    <dc:title/>
   </cc:Work>
  </rdf:RDF>
 </metadata>
 <g id="layer1" transform="translate(-461.71 -525.79)">
  <path id="path4167" opacity=".5" d="m15 4v1 1 0.3125l-3.688 3.6875h-2.312v2.312l-2.6875 2.688h-0.3125-1-1v3h3v-2.312l2.6875-2.688h2.3125v-2.312l3.688-3.688h2.312v-3h-3z" transform="translate(461.71 525.79)"/>
 </g>
</svg>

<?xml version="1.0" encoding="UTF-8" standalone="no"?>
<!--Created with Inkscape (http://www.inkscape.org/)-->
<svg xmlns:dc="http://purl.org/dc/elements/1.1/" xmlns:cc="http://creativecommons.org/ns#" xmlns:rdf="http://www.w3.org/1999/02/22-rdf-syntax-ns#" xmlns:svg="http://www.w3.org/2000/svg" xmlns="http://www.w3.org/2000/svg" xmlns:sodipodi="http://sodipodi.sourceforge.net/DTD/sodipodi-0.dtd" xmlns:inkscape="http://www.inkscape.org/namespaces/inkscape" width="22" height="22" id="svg3815" version="1.1" inkscape:version="0.91 r13725" sodipodi:docname="format-node-line.svg">
    <defs id="defs3817">
        <style type="text/css" id="current-color-scheme">
            .ColorScheme-Text { color:#4d4d4d; } .ColorScheme-Background { color:#eff0f1; } .ColorScheme-Highlight { color:#3daee9; } .ColorScheme-ViewText { color:#31363b; } .ColorScheme-ViewBackground { color:#fcfcfc; } .ColorScheme-ViewHover { color:#93cee9; } .ColorScheme-ViewFocus{ color:#3daee9; } .ColorScheme-ButtonText { color:#31363b; } .ColorScheme-ButtonBackground { color:#eff0f1; } .ColorScheme-ButtonHover { color:#93cee9; } .ColorScheme-ButtonFocus{ color:#3daee9; }
        </style>
    </defs>
    <sodipodi:namedview id="base" pagecolor="#000000" bordercolor="#666666" borderopacity="1.0" inkscape:pageopacity="0.0" inkscape:pageshadow="2" inkscape:zoom="22.32" inkscape:cx="3.5110753" inkscape:cy="11.298616" inkscape:document-units="px" inkscape:current-layer="layer1" showgrid="false" fit-margin-top="0" fit-margin-left="0" fit-margin-right="0" fit-margin-bottom="0" inkscape:window-width="1600" inkscape:window-height="847" inkscape:window-x="0" inkscape:window-y="30" inkscape:window-maximized="1" inkscape:showpageshadow="false" borderlayer="false" showguides="false" inkscape:snap-intersection-paths="false" inkscape:snap-bbox="true" inkscape:object-nodes="true">
        <sodipodi:guide position="2.0000044,19.999979" orientation="18,0" id="guide3338"/>
        <sodipodi:guide position="2.0000044,1.9999785" orientation="0,18" id="guide3340"/>
        <sodipodi:guide position="20.000004,1.9999785" orientation="-18,0" id="guide3342"/>
        <sodipodi:guide position="20.000004,19.999979" orientation="0,-18" id="guide3344"/>
        <sodipodi:guide position="3.0000044,18.999979" orientation="16,0" id="guide3346"/>
        <sodipodi:guide position="3.0000044,2.9999785" orientation="0,16" id="guide3348"/>
        <sodipodi:guide position="19.000004,2.9999785" orientation="-16,0" id="guide3350"/>
        <sodipodi:guide position="17,19" orientation="0,-16" id="guide3352"/>
        <inkscape:grid type="xygrid" id="grid3354"/>
    </sodipodi:namedview>
    <metadata id="metadata3820">
        <rdf:RDF>
            <cc:Work rdf:about="">
                <dc:format>
                    image/svg+xml
                </dc:format>
                <dc:type rdf:resource="http://purl.org/dc/dcmitype/StillImage"/>
                <dc:title/>
            </cc:Work>
        </rdf:RDF>
    </metadata>
    <g inkscape:label="Capa 1" inkscape:groupmode="layer" id="layer1" transform="translate(-461.71429,-525.79075)">
        <path style="opacity:0.5;fill:#000000;fill-opacity:1;stroke:none" d="M 15 4 L 15 5 L 15 6 L 15 6.3125 L 11.3125 10 L 9 10 L 9 12.3125 L 6.3125 15 L 6 15 L 5 15 L 4 15 L 4 18 L 7 18 L 7 15.6875 L 9.6875 13 L 12 13 L 12 10.6875 L 15.6875 7 L 18 7 L 18 4 L 15 4 z " transform="translate(461.71429,525.79075)" id="path4167"/>
    </g>
</svg>
